X: 2
T: The Silver Spear
R: reel
M: 4/4
L: 1/8
K: Dmaj
eAAG A2(3B=cd|eaaf gedg|ea~a2 ba~a2|ded=c BG(3B=cd|eAAG A2(3B=cd|eaaf gedg|e~a3 g3z|1ded=c BG(3B=cd:|2ded=c BGG2||a2fa ba~a2|abag fddf|a2fa bafe|dfed BA~A2|a2fa ba~a2|abag fdef|g3e f3z|efed BAA2:|


Tune 182	Setting 28252

